X: 389
%
U:~=!turn!
T: Miss Betsy Robertson
C:Robt. Macintosh
O:Scotland
B:Keith Norman MacDonald : "The Skye collection of the best reels & strathspeys extant" : 1887
Z:Ralph Palmer
R:Reel
M:C|
L:1/8
K:G
c | {/^c}d3 g2 BGdB | Aa(ag) fdef | Tgfgd (Bc)dB | cAdc BGG :| c | BGDG (EG)DG | ABcB cedc |
BGDG (EG) ce | {/^c}dBcA BGGc | BGDG (EG)DG | ABcB cedc | Bdgd ceag | Tfdef {/f}gGG |]


